public/img/old-svg/chat.svg

<svg width="14" height="12" viewBox="0 0 14 12" fill="none" xmlns="http://www.w3.org/2000/svg">
<path d="M12.7882 3.22998H5.46708C4.79918 3.22998 4.25586 3.77331 4.25586 4.4412V8.47859C4.25586 9.14648 4.79918 9.6898 5.46708 9.6898H11.8136L13.3102 11.1865C13.4268 11.303 13.6014 11.3361 13.7502 11.274C13.9012 11.2117 13.9994 11.0642 13.9994 10.901V4.4412C13.9994 3.77331 13.4561 3.22998 12.7882 3.22998ZM10.7695 7.67111H7.48577C7.26261 7.67111 7.08203 7.49053 7.08203 7.26737C7.08203 7.04421 7.26261 6.86363 7.48577 6.86363H10.7695C10.9927 6.86363 11.1733 7.04421 11.1733 7.26737C11.1733 7.49053 10.9927 7.67111 10.7695 7.67111ZM11.577 6.05615H6.67829C6.45513 6.05615 6.27455 5.87557 6.27455 5.65241C6.27455 5.42925 6.45513 5.24867 6.67829 5.24867H11.577C11.8002 5.24867 11.9807 5.42925 11.9807 5.65241C11.9807 5.87557 11.8002 6.05615 11.577 6.05615Z" fill="#EC824A"/>
<path d="M0.467938 8.04401C0.616729 8.10611 0.791386 8.07303 0.907959 7.95648L2.40462 6.45982H3.44866V4.44113C3.44866 3.32807 4.3543 2.42243 5.46736 2.42243H9.96232V1.21122C9.96232 0.542275 9.42004 0 8.7511 0H1.42997C0.761025 0 0.21875 0.542275 0.21875 1.21122V7.67104C0.21875 7.83426 0.316912 7.98173 0.467938 8.04401Z" fill="#EC824A"/>
</svg>

<svg width="14" height="12" viewBox="0 0 14 12" fill="none" xmlns="http://www.w3.org/2000/svg"><path d="M12.788 3.23h-7.32c-.669 0-1.212.543-1.212 1.211V8.48c0 .667.543 1.21 1.211 1.21h6.347l1.496 1.498A.404.404 0 0014 10.9V4.44c0-.668-.544-1.211-1.212-1.211zM10.77 7.671H7.486a.404.404 0 110-.807h3.284a.404.404 0 110 .807zm.807-1.615H6.678a.404.404 0 110-.807h4.899a.403.403 0 110 .807z" fill="#EC824A"/><path d="M.468 8.044a.404.404 0 00.44-.088L2.405 6.46h1.044V4.44a2.02 2.02 0 012.018-2.019h4.495v-1.21A1.21 1.21 0 008.752 0H1.43A1.21 1.21 0 00.219 1.211v6.46c0 .163.098.31.249.373z" fill="#EC824A"/></svg>
